;START_OF_HEADER
;HEADER_VERSION:0.1
;FLAVOR:Griffin
;GENERATOR.NAME:Cura_SteamEngine
;GENERATOR.VERSION:4.3.0
;GENERATOR.BUILD_DATE:2019-09-24
;TARGET_MACHINE.NAME:Ultimaker 3
;EXTRUDER_TRAIN.1.INITIAL_TEMPERATURE:205
;EXTRUDER_TRAIN.1.MATERIAL.VOLUME_USED:7767
;EXTRUDER_TRAIN.1.MATERIAL.GUID:506c9f0d-e3aa-4bd4-b2d2-23e2425b1aa9
;EXTRUDER_TRAIN.1.NOZZLE.DIAMETER:0.4
;EXTRUDER_TRAIN.1.NOZZLE.NAME:AA 0.4
;BUILD_PLATE.TYPE:glass
;BUILD_PLATE.INITIAL_TEMPERATURE:60
;PRINT.TIME:8141
;PRINT.GROUPS:1
;PRINT.SIZE.MIN.X:14.964
;PRINT.SIZE.MIN.Y:6
;PRINT.SIZE.MIN.Z:0.27
;PRINT.SIZE.MAX.X:204
;PRINT.SIZE.MAX.Y:192.217
;PRINT.SIZE.MAX.Z:25.17
;END_OF_HEADER
;Generated with Cura_SteamEngine 4.3.0
T1
M82 ;absolute extrusion mode

G92 E0
M109 S205
G0 F15000 X204 Y6 Z2
G280
G1 F1500 E-6.5
;LAYER_COUNT:254
;LAYER:0
M107
M204 S625
M205 X6 Y6
G0 F4285.7 X197.857 Y44.847 Z0.27
M204 S500
M205 X5 Y5
;TYPE:SKIRT
G1 F1500 E0
G1 F1200 X197.888 Y44.879 E0.00079
G1 X198.348 Y45.352 E0.01252
G1 X198.672 Y45.742 E0.02153
G1 X198.93 Y46.177 E0.03052
G1 X199.116 Y46.648 E0.03953
G1 X199.226 Y47.143 E0.04854
G1 X199.256 Y47.648 E0.05753
G1 X199.207 Y48.152 E0.06653
G1 X199.08 Y48.642 E0.07553
G1 X198.877 Y49.106 E0.08453
G1 X198.603 Y49.532 E0.09354
G1 X198.266 Y49.91 E0.10254
G1 X197.873 Y50.23 E0.11155
G1 X197.436 Y50.484 E0.12053
G1 X196.963 Y50.666 E0.12954
G1 X196.484 Y50.77 E0.13826
G1 X195.647 Y50.885 E0.15327
G1 X195.599 Y50.891 E0.15413
G1 X194.552 Y51.019 E0.17288
G1 X191.823 Y51.432 E0.22195
G1 X189.149 Y51.913 E0.27024
G1 X186.448 Y52.479 E0.3193
G1 X183.839 Y53.102 E0.36698
G1 X181.154 Y53.826 E0.41641
G1 X178.523 Y54.615 E0.46524
G1 X175.905 Y55.481 E0.51426
G1 X173.352 Y56.408 E0.56254
G1 X170.841 Y57.399 E0.61052
G1 X168.279 Y58.497 E0.66007
G1 X165.818 Y59.634 E0.70826
G1 X163.364 Y60.853 E0.75697
G1 X160.942 Y62.143 E0.80575
G1 X158.548 Y63.506 E0.85472
G1 X156.24 Y64.909 E0.90273
G1 X153.909 Y66.416 E0.95207
G1 X151.664 Y67.961 E1.00052
G1 X149.479 Y69.556 E1.0486
G1 X147.287 Y71.254 E1.09789
G1 X145.184 Y72.981 E1.14627
G1 X143.11 Y74.784 E1.19512
G1 X141.105 Y76.629 E1.24355
G1 X139.174 Y78.509 E1.29146
G1 X77.781 Y139.903 E2.83483
G1 X56.113 Y161.571 E3.37954
G1 X54.143 Y163.596 E3.42976
G1 X52.342 Y165.558 E3.4771
G1 X50.51 Y167.671 E3.52682
G1 X48.801 Y169.755 E3.57473
G1 X47.117 Y171.935 E3.62369
G1 X45.505 Y174.145 E3.67232
G1 X43.951 Y176.409 E3.72113
G1 X42.481 Y178.687 E3.76932
G1 X41.05 Y181.048 E3.8184
G1 X39.701 Y183.422 E3.86694
G1 X38.415 Y185.842 E3.91565
G1 X37.198 Y188.298 E3.96438
G1 X36.852 Y189.054 E3.97916
G1 X36.835 Y189.09 E3.97986
G1 X36.226 Y190.379 E4.0052
G1 X35.975 Y190.819 E4.01421
G1 X35.657 Y191.213 E4.02321
G1 X35.281 Y191.552 E4.03221
G1 X34.857 Y191.828 E4.0412
G1 X34.394 Y192.034 E4.05021
G1 X33.905 Y192.165 E4.05921
G1 X33.401 Y192.217 E4.06822
G1 X32.896 Y192.189 E4.07721
G1 X32.401 Y192.082 E4.08621
G1 X31.929 Y191.899 E4.09521
G1 X31.491 Y191.644 E4.10422
G1 X31.095 Y191.317 E4.11335
G1 X30.489 Y190.732 E4.12832
G1 X30.448 Y190.693 E4.12932
G1 X16.413 Y176.659 E4.48214
G1 X16.383 Y176.628 E4.4829
G1 X15.873 Y176.104 E4.4959
G1 X15.549 Y175.714 E4.50492
G1 X15.291 Y175.279 E4.51391
G1 X15.105 Y174.808 E4.52291
G1 X14.995 Y174.314 E4.5319
G1 X14.964 Y173.808 E4.54092
G1 X15.012 Y173.304 E4.54992
G1 X15.14 Y172.814 E4.55892
G1 X15.343 Y172.35 E4.56792
G1 X15.616 Y171.924 E4.57691
G1 X15.953 Y171.546 E4.58592
G1 X16.346 Y171.226 E4.59493
G1 X16.783 Y170.972 E4.60391
G1 X17.116 Y170.812 E4.61048
G1 X17.159 Y170.791 E4.61133
G1 X18.979 Y169.95 E4.64697
G1 X21.42 Y168.737 E4.69542
G1 X23.854 Y167.441 E4.74444
G1 X26.214 Y166.096 E4.79273
G1 X28.563 Y164.669 E4.84158
G1 X30.866 Y163.179 E4.89034
G1 X33.12 Y161.628 E4.93898
G1 X35.305 Y160.033 E4.98707
G1 X37.497 Y158.335 E5.03635
G1 X39.62 Y156.591 E5.08519
G1 X41.653 Y154.824 E5.13307
G1 X43.697 Y152.943 E5.18245
G1 X45.576 Y151.114 E5.22906
G1 X67.283 Y129.407 E5.77476
G1 X128.711 Y67.981 E7.31897
G1 X130.633 Y66.005 E7.36797
G1 X132.45 Y64.025 E7.41574
G1 X134.294 Y61.899 E7.46577
G1 X135.989 Y59.831 E7.5133
G1 X137.676 Y57.648 E7.56234
G1 X139.288 Y55.438 E7.61097
G1 X140.84 Y53.174 E7.65976
G1 X142.319 Y50.885 E7.7082
G1 X143.737 Y48.545 E7.75684
G1 X145.092 Y46.161 E7.80559
G1 X146.378 Y43.741 E7.8543
G1 X147.602 Y41.271 E7.9033
G1 X148.731 Y38.821 E7.95126
G1 X149.821 Y36.271 E8.00055
G1 X150.831 Y33.707 E8.04954
G1 X151.736 Y31.199 E8.09693
G1 X152.613 Y28.541 E8.14669
G1 X153.389 Y25.943 E8.19489
G1 X154.1 Y23.295 E8.24362
G1 X154.734 Y20.638 E8.29218
G1 X155.297 Y17.938 E8.34121
G1 X155.777 Y15.251 E8.38973
G1 X156.179 Y12.571 E8.4379
G1 X156.411 Y10.738 E8.47074
G1 X156.514 Y10.242 E8.47975
G1 X156.694 Y9.768 E8.48876
G1 X156.946 Y9.329 E8.49776
G1 X157.263 Y8.935 E8.50675
G1 X157.639 Y8.595 E8.51576
G1 X158.064 Y8.319 E8.52477
G1 X158.526 Y8.113 E8.53376
G1 X159.016 Y7.983 E8.54277
G1 X159.519 Y7.931 E8.55176
G1 X160.025 Y7.959 E8.56077
G1 X160.52 Y8.066 E8.56977
G1 X160.992 Y8.249 E8.57877
G1 X161.429 Y8.505 E8.58777
G1 X161.783 Y8.791 E8.59586
G1 X161.957 Y8.953 E8.60009
G1 X162.04 Y9.032 E8.60213
G1 X197.857 Y44.847 E9.50251
M204 S625
M205 X6 Y6
G1 F1500 E3.00251
;MESH:attempt1_6.stl
G0 F4285.7 X195.191 Y45.604
G0 X194.204 Y46.59
G0 X165.907 Y36.684
M204 S500
M205 X5 Y5
;TYPE:WALL-INNER
G1 F1500 E9.50251
G1 F1200 X161.31 Y14.664 E9.84525
G1 X161.309 Y14.663 E9.84527
G1 X161.188 Y14.076 E9.8544
G1 X161.612 Y14.5 E9.85916
G1 X192.688 Y45.576 E10.52878
G1 X193.112 Y46 E10.53791
G1 X192.525 Y45.879 E10.54267
G1 X192.524 Y45.878 E10.54269
G1 X170.504 Y41.281 E10.88543
G1 X74.832 Y136.954 E12.94696
G1 X31.4 Y180.387 E13.88283
G1 X32.012 Y185.908 E13.96747
G1 X32.068 Y186.415 E13.97524
G1 X31.707 Y186.054 E13.97935
G1 X21.132 Y175.48 E14.20721
G1 X20.771 Y175.119 E14.21499
G1 X21.278 Y175.175 E14.21909
G1 X26.8 Y175.787 E14.30374
G1 X70.232 Y132.356 E15.23959
G1 X165.907 Y36.684 E17.30114
M204 S625
M205 X6 Y6
G0 F4285.7 X165.515 Y36.567
M204 S500
M205 X5 Y5
G1 F1200 X160.711 Y13.555 E17.65932
G1 X160.71 Y13.554 E17.65935
G1 X160.589 Y12.967 E17.66848
G1 X161.013 Y13.391 E17.67324
G1 X193.797 Y46.175 E18.37966
G1 X194.221 Y46.599 E18.38879
G1 X193.634 Y46.478 E18.39355
G1 X193.633 Y46.477 E18.39357
G1 X170.621 Y41.673 E18.75175
G1 X75.087 Y137.209 E20.81032
G1 X31.777 Y180.519 E21.74355
G1 X32.483 Y186.889 E21.8412
G1 X32.539 Y187.396 E21.84897
G1 X32.178 Y187.035 E21.85308
G1 X20.151 Y175.009 E22.11223
G1 X19.79 Y174.648 E22.12001
G1 X20.297 Y174.704 E22.12411
G1 X26.668 Y175.41 E22.22178
G1 X69.977 Y132.101 E23.15499
G1 X165.515 Y36.567 E25.21357
M204 S625
M205 X6 Y6
G0 F4285.7 X165.09 Y36.44
M204 S500
M205 X5 Y5
;TYPE:WALL-OUTER
G1 F1200 X160.082 Y12.454 E25.64914
G1 X160.081 Y12.453 E25.64917
G1 X159.939 Y11.765 E25.66166
G1 X160.436 Y12.262 E25.66816
G1 X194.925 Y46.751 E26.53518
G1 X195.422 Y47.248 E26.54767
G1 X194.734 Y47.106 E26.55418
G1 X194.733 Y47.105 E26.5542
G1 X170.748 Y42.098 E26.98975
G1 X75.363 Y137.485 E29.38766
G1 X32.185 Y180.662 E30.4731
G1 X32.985 Y187.865 E30.60193
G1 X32.986 Y187.866 E30.60195
G1 X33.05 Y188.459 E30.61256
G1 X32.628 Y188.037 E30.61816
G1 X19.149 Y174.559 E30.95699
G1 X18.727 Y174.137 E30.9676
G1 X19.32 Y174.201 E30.9732
G1 X19.321 Y174.202 E30.97323
G1 X26.525 Y175.002 E31.10207
G1 X69.701 Y131.825 E32.18749
G1 X165.09 Y36.44 E34.58542
M204 S625
M205 X6 Y6
G0 F4285.7 X165.05 Y36.245
G0 X165.502 Y36.152
G0 X165.528 Y36.148
G0 X166.321 Y36.807
M204 S500
M205 X5 Y5
;TYPE:SKIN
G1 F1200 X161.82 Y15.244 E34.97699
G1 X191.944 Y45.368 E35.73428
G1 X170.381 Y40.867 E36.12584
G1 X74.564 Y136.686 E38.53461
G1 X31.003 Y180.248 E39.62971
G1 X31.571 Y185.382 E39.72153
G1 X21.804 Y175.616 E39.96705
G1 X26.939 Y176.184 E40.05888
G1 X70.5 Y132.624 E41.15395
G1 X166.321 Y36.807 E43.56275
M204 S625
M205 X6 Y6
G0 F4285.7 X162.218 Y16.283
M204 S500
M205 X5 Y5
G1 F1200 X190.903 Y44.967 E44.28385
M204 S625
M205 X6 Y6
G0 F4285.7 X190.153 Y44.811
M204 S500
M205 X5 Y5
G1 F1200 X162.375 Y17.033 E44.98216
M204 S625
M205 X6 Y6
G0 F4285.7 X162.532 Y17.784
M204 S500
M205 X5 Y5
G1 F1200 X189.402 Y44.654 E45.65765
M204 S625
M205 X6 Y6
G0 F4285.7 X188.651 Y44.497
M204 S500
M205 X5 Y5
G1 F1200 X162.689 Y18.535 E46.3103
M204 S625
M205 X6 Y6
G0 F4285.7 X162.845 Y19.285
M204 S500
M205 X5 Y5
G1 F1200 X187.901 Y44.341 E46.94019
M204 S625
M205 X6 Y6
G0 F4285.7 X187.15 Y44.184
M204 S500
M205 X5 Y5
G1 F1200 X163.002 Y20.036 E47.54725
M204 S625
M205 X6 Y6
G0 F4285.7 X163.158 Y20.786
M204 S500
M205 X5 Y5
G1 F1200 X186.399 Y44.028 E48.13151
M204 S625
M205 X6 Y6
G0 F4285.7 X185.648 Y43.871
M204 S500
M205 X5 Y5
G1 F1200 X163.315 Y21.537 E48.69296
M204 S625
M205 X6 Y6
G0 F4285.7 X163.471 Y22.288
M204 S500
M205 X5 Y5
G1 F1200 X184.898 Y43.714 E49.2316
M204 S625
M205 X6 Y6
G0 F4285.7 X184.147 Y43.557
M204 S500
M205 X5 Y5
G1 F1200 X163.628 Y23.038 E49.74743
M204 S625
M205 X6 Y6
G0 F4285.7 X163.785 Y23.789
M204 S500
M205 X5 Y5
G1 F1200 X183.396 Y43.4 E50.24043
M204 S625
M205 X6 Y6
G0 F4285.7 X182.646 Y43.244
M204 S500
M205 X5 Y5
G1 F1200 X163.942 Y24.54 E50.71063
M204 S625
M205 X6 Y6
G0 F4285.7 X164.099 Y25.291
M204 S500
M205 X5 Y5
G1 F1200 X181.895 Y43.087 E51.158
M204 S625
M205 X6 Y6
G0 F4285.7 X181.145 Y42.931
M204 S500
M205 X5 Y5
G1 F1200 X164.255 Y26.041 E51.5826
M204 S625
M205 X6 Y6
G0 F4285.7 X164.412 Y26.792
M204 S500
M205 X5 Y5
G1 F1200 X180.394 Y42.774 E51.98437
M204 S625
M205 X6 Y6
G0 F4285.7 X179.644 Y42.618
M204 S500
M205 X5 Y5
G1 F1200 X164.568 Y27.542 E52.36337
M204 S625
M205 X6 Y6
G0 F4285.7 X164.725 Y28.293
M204 S500
M205 X5 Y5
G1 F1200 X178.893 Y42.461 E52.71954
M204 S625
M205 X6 Y6
G0 F4285.7 X178.142 Y42.304
M204 S500
M205 X5 Y5
G1 F1200 X164.881 Y29.043 E53.05291
M204 S625
M205 X6 Y6
G0 F4285.7 X165.038 Y29.794
M204 S500
M205 X5 Y5
G1 F1200 X177.391 Y42.147 E53.36345
M204 S625
M205 X6 Y6
G0 F4285.7 X176.641 Y41.99
M204 S500
M205 X5 Y5
G1 F1200 X165.195 Y30.545 E53.65118
M204 S625
M205 X6 Y6
G0 F4285.7 X165.352 Y31.295
M204 S500
M205 X5 Y5
G1 F1200 X175.89 Y41.834 E53.9161
M204 S625
M205 X6 Y6
G0 F4285.7 X175.139 Y41.677
M204 S500
M205 X5 Y5
G1 F1200 X165.509 Y32.046 E54.15821
M204 S625
M205 X6 Y6
G0 F4285.7 X165.665 Y32.797
M204 S500
M205 X5 Y5
G1 F1200 X174.389 Y41.521 E54.37752
M204 S625
M205 X6 Y6
G0 F4285.7 X173.638 Y41.364
M204 S500
M205 X5 Y5
G1 F1200 X165.822 Y33.547 E54.57402
M204 S625
M205 X6 Y6
G0 F4285.7 X165.978 Y34.298
M204 S500
M205 X5 Y5
G1 F1200 X172.888 Y41.208 E54.74773
M204 S625
M205 X6 Y6
G0 F4285.7 X172.137 Y41.051
M204 S500
M205 X5 Y5
G1 F1200 X166.135 Y35.049 E54.89861
M204 S625
M205 X6 Y6
G0 F4285.7 X166.292 Y35.8
M204 S500
M205 X5 Y5
G1 F1200 X171.386 Y40.894 E55.02667
M204 S625
M205 X6 Y6
G0 F4285.7 X170.636 Y40.737
M204 S500
M205 X5 Y5
G1 F1200 X166.448 Y36.55 E55.13194
M204 S625
M205 X6 Y6
G0 F4285.7 X166.341 Y37.036
M204 S500
M205 X5 Y5
G1 F1200 X170.151 Y40.846 E55.22772
M204 S625
M205 X6 Y6
G0 F4285.7 X169.854 Y41.143
M204 S500
M205 X5 Y5
G1 F1200 X166.044 Y37.333 E55.3235
M204 S625
M205 X6 Y6
G0 F4285.7 X165.747 Y37.63
M204 S500
M205 X5 Y5
G1 F1200 X169.557 Y41.44 E55.41928
M204 S625
M205 X6 Y6
G0 F4285.7 X169.26 Y41.737
M204 S500
M205 X5 Y5
G1 F1200 X165.45 Y37.927 E55.51506
M204 S625
M205 X6 Y6
G0 F4285.7 X165.153 Y38.224
M204 S500
M205 X5 Y5
G1 F1200 X168.963 Y42.034 E55.61084
M204 S625
M205 X6 Y6
G0 F4285.7 X168.666 Y42.331
M204 S500
M205 X5 Y5
G1 F1200 X164.856 Y38.521 E55.70662
M204 S625
M205 X6 Y6
G0 F4285.7 X164.559 Y38.818
M204 S500
M205 X5 Y5
G1 F1200 X168.369 Y42.628 E55.8024
M204 S625
M205 X6 Y6
G0 F4285.7 X168.072 Y42.925
M204 S500
M205 X5 Y5
G1 F1200 X164.262 Y39.115 E55.89818
M204 S625
M205 X6 Y6
G0 F4285.7 X163.965 Y39.412
M204 S500
M205 X5 Y5
G1 F1200 X167.775 Y43.222 E55.99396
M204 S625
M205 X6 Y6
G0 F4285.7 X167.478 Y43.519
M204 S500
M205 X5 Y5
G1 F1200 X163.668 Y39.709 E56.08974
M204 S625
M205 X6 Y6
G0 F4285.7 X163.371 Y40.006
M204 S500
M205 X5 Y5
G1 F1200 X167.181 Y43.816 E56.18552
M204 S625
M205 X6 Y6
G0 F4285.7 X166.884 Y44.113
M204 S500
M205 X5 Y5
G1 F1200 X163.074 Y40.303 E56.2813
M204 S625
M205 X6 Y6
G0 F4285.7 X162.777 Y40.6
M204 S500
M205 X5 Y5
G1 F1200 X166.587 Y44.41 E56.37708
M204 S625
M205 X6 Y6
G0 F4285.7 X166.29 Y44.707
M204 S500
M205 X5 Y5
G1 F1200 X162.48 Y40.897 E56.47286
M204 S625
M205 X6 Y6
G0 F4285.7 X162.183 Y41.194
M204 S500
M205 X5 Y5
G1 F1200 X165.993 Y45.004 E56.56864
M204 S625
M205 X6 Y6
G0 F4285.7 X165.696 Y45.301
M204 S500
M205 X5 Y5
G1 F1200 X161.886 Y41.491 E56.66442
M204 S625
M205 X6 Y6
G0 F4285.7 X161.589 Y41.788
M204 S500
M205 X5 Y5
G1 F1200 X165.399 Y45.598 E56.7602
M204 S625
M205 X6 Y6
G0 F4285.7 X165.102 Y45.895
M204 S500
M205 X5 Y5
G1 F1200 X161.292 Y42.085 E56.85598
M204 S625
M205 X6 Y6
G0 F4285.7 X160.995 Y42.382
M204 S500
M205 X5 Y5
G1 F1200 X164.805 Y46.192 E56.95175
M204 S625
M205 X6 Y6
G0 F4285.7 X164.508 Y46.489
M204 S500
M205 X5 Y5
G1 F1200 X160.698 Y42.679 E57.04753
M204 S625
M205 X6 Y6
G0 F4285.7 X160.401 Y42.976
M204 S500
M205 X5 Y5
G1 F1200 X164.211 Y46.786 E57.14331
M204 S625
M205 X6 Y6
G0 F4285.7 X163.914 Y47.083
M204 S500
M205 X5 Y5
G1 F1200 X160.104 Y43.273 E57.23909
M204 S625
M205 X6 Y6
G0 F4285.7 X159.807 Y43.57
M204 S500
M205 X5 Y5
G1 F1200 X163.617 Y47.38 E57.33487
M204 S625
M205 X6 Y6
G0 F4285.7 X163.32 Y47.677
M204 S500
M205 X5 Y5
G1 F1200 X159.51 Y43.867 E57.43065
M204 S625
M205 X6 Y6
G0 F4285.7 X159.213 Y44.164
M204 S500
M205 X5 Y5
G1 F1200 X163.023 Y47.974 E57.52643
M204 S625
M205 X6 Y6
G0 F4285.7 X162.726 Y48.271
M204 S500
M205 X5 Y5
G1 F1200 X158.916 Y44.461 E57.62221
M204 S625
M205 X6 Y6
G0 F4285.7 X158.619 Y44.758
M204 S500
M205 X5 Y5
G1 F1200 X162.429 Y48.568 E57.71799
M204 S625
M205 X6 Y6
G0 F4285.7 X162.132 Y48.865
M204 S500
M205 X5 Y5
G1 F1200 X158.322 Y45.055 E57.81377
M204 S625
M205 X6 Y6
G0 F4285.7 X158.025 Y45.352
M204 S500
M205 X5 Y5
G1 F1200 X161.835 Y49.162 E57.90955
M204 S625
M205 X6 Y6
G0 F4285.7 X161.538 Y49.459
M204 S500
M205 X5 Y5
G1 F1200 X157.728 Y45.649 E58.00533
M204 S625
M205 X6 Y6
G0 F4285.7 X157.431 Y45.946
M204 S500
M205 X5 Y5
G1 F1200 X161.241 Y49.756 E58.10111
M204 S625
M205 X6 Y6
G0 F4285.7 X160.944 Y50.053
M204 S500
M205 X5 Y5
G1 F1200 X157.134 Y46.243 E58.19689
M204 S625
M205 X6 Y6
G0 F4285.7 X156.837 Y46.54
M204 S500
M205 X5 Y5
G1 F1200 X160.647 Y50.35 E58.29267
M204 S625
M205 X6 Y6
G0 F4285.7 X160.35 Y50.647
M204 S500
M205 X5 Y5
G1 F1200 X156.54 Y46.837 E58.38845
M204 S625
M205 X6 Y6
G0 F4285.7 X156.243 Y47.134
M204 S500
M205 X5 Y5
G1 F1200 X160.053 Y50.944 E58.48423
M204 S625
M205 X6 Y6
G0 F4285.7 X159.756 Y51.241
M204 S500
M205 X5 Y5
G1 F1200 X155.946 Y47.431 E58.58001
M204 S625
M205 X6 Y6
G0 F4285.7 X155.649 Y47.728
M204 S500
M205 X5 Y5
G1 F1200 X159.459 Y51.538 E58.67579
M204 S625
M205 X6 Y6
G0 F4285.7 X159.162 Y51.835
M204 S500
M205 X5 Y5
G1 F1200 X155.352 Y48.025 E58.77157
M204 S625
M205 X6 Y6
G0 F4285.7 X155.055 Y48.322
M204 S500
M205 X5 Y5
G1 F1200 X158.865 Y52.132 E58.86735
M204 S625
M205 X6 Y6
G0 F4285.7 X158.568 Y52.429
M204 S500
M205 X5 Y5
G1 F1200 X154.758 Y48.619 E58.96313
M204 S625
M205 X6 Y6
G0 F4285.7 X154.461 Y48.916
M204 S500
M205 X5 Y5
G1 F1200 X158.271 Y52.726 E59.05891
M204 S625
M205 X6 Y6
G0 F4285.7 X157.974 Y53.023
M204 S500
M205 X5 Y5
G1 F1200 X154.164 Y49.213 E59.15469
M204 S625
M205 X6 Y6
G0 F4285.7 X153.867 Y49.51
M204 S500
M205 X5 Y5
G1 F1200 X157.677 Y53.32 E59.25047
M204 S625
M205 X6 Y6
G0 F4285.7 X157.38 Y53.617
M204 S500
M205 X5 Y5
G1 F1200 X153.57 Y49.807 E59.34625
M204 S625
M205 X6 Y6
G0 F4285.7 X153.273 Y50.104
M204 S500
M205 X5 Y5
G1 F1200 X157.083 Y53.914 E59.44203
M204 S625
M205 X6 Y6
G0 F4285.7 X156.786 Y54.211
M204 S500
M205 X5 Y5
G1 F1200 X152.977 Y50.401 E59.53779
M204 S625
M205 X6 Y6
G0 F4285.7 X152.68 Y50.698
M204 S500
M205 X5 Y5
G1 F1200 X156.489 Y54.508 E59.63356
M204 S625
M205 X6 Y6
G0 F4285.7 X156.192 Y54.805
M204 S500
M205 X5 Y5
G1 F1200 X152.383 Y50.995 E59.72933
M204 S625
M205 X6 Y6
G0 F4285.7 X152.086 Y51.292
M204 S500
M205 X5 Y5
G1 F1200 X155.895 Y55.102 E59.8251
M204 S625
M205 X6 Y6
G0 F4285.7 X155.598 Y55.398
M204 S500
M205 X5 Y5
G1 F1200 X151.789 Y51.589 E59.92085
M204 S625
M205 X6 Y6
